_includes/icons/color-music-folder.svg

<svg fill="#666" height="50" viewBox="0 0 48 48" width="50" xmlns="http://www.w3.org/2000/svg"><path d="m40 12h-18l-4-4h-10c-2.199219 0-4 1.800781-4 4v8h40v-4c0-2.199219-1.800781-4-4-4z" fill="#ffa000"/><path d="m40 12h-32c-2.199219 0-4 1.800781-4 4v20c0 2.199219 1.800781 4 4 4h32c2.199219 0 4-1.800781 4-4v-20c0-2.199219-1.800781-4-4-4z" fill="#ffca28"/><g fill="#e91e63"><path d="m27 30.5c0 2.484375-2.015625 4.5-4.5 4.5s-4.5-2.015625-4.5-4.5 2.015625-4.5 4.5-4.5 4.5 2.015625 4.5 4.5z"/><path d="m32 18.898438-7-1.898438v13.5h2v-9.5l5 1.398438z"/></g></svg>

<svg xmlns="http://www.w3.org/2000/svg" viewBox="0 0 48 48" width="50" height="50" fill="#666"><path d="M 40 12 L 22 12 L 18 8 L 8 8 C 5.800781 8 4 9.800781 4 12 L 4 20 L 44 20 L 44 16 C 44 13.800781 42.199219 12 40 12 Z" fill="#ffa000"/><path d="M 40 12 L 8 12 C 5.800781 12 4 13.800781 4 16 L 4 36 C 4 38.199219 5.800781 40 8 40 L 40 40 C 42.199219 40 44 38.199219 44 36 L 44 16 C 44 13.800781 42.199219 12 40 12 Z" fill="#ffca28"/><path d="M 27 30.5 C 27 32.984375 24.984375 35 22.5 35 C 20.015625 35 18 32.984375 18 30.5 C 18 28.015625 20.015625 26 22.5 26 C 24.984375 26 27 28.015625 27 30.5 Z" fill="#e91e63"/><path d="M 32 18.898438 L 25 17 L 25 30.5 L 27 30.5 L 27 21 L 32 22.398438 Z" fill="#e91e63"/></svg>
